assets/Reversal-dark/actions/16/view-statistics.svg

<svg version="1.1" viewBox="0 0 16 16" xmlns="http://www.w3.org/2000/svg">
 <defs>
  <style id="current-color-scheme" type="text/css">.ColorScheme-Text {
        color:#dedede;
      }</style>
 </defs>
 <path class="ColorScheme-Text" d="m11 2v12h3v-12h-3zm1 1h1v10h-1v-10zm-6 2v9h3v-9h-3zm1 1h1v7h-1v-7zm-6 2v6h3v-6h-3zm1 1h1v4h-1v-4z" fill="currentColor"/>
</svg>

<svg xmlns="http://www.w3.org/2000/svg" viewBox="0 0 16 16">
  <defs id="defs3051">
    <style type="text/css" id="current-color-scheme">
      .ColorScheme-Text {
        color:#dedede;
      }
      </style>
  </defs>
 <path style="fill:currentColor;fill-opacity:1;stroke:none" 
       d="M 11 2 L 11 14 L 14 14 L 14 2 L 11 2 z M 6 5 L 6 14 L 9 14 L 9 5 L 6 5 z M 1 8 L 1 14 L 4 14 L 4 8 L 1 8 z "
     class="ColorScheme-Text"
     />
</svg>
